src/lib/packages/icons/src/assets/line/play-square.svg

<svg width="24" height="24" viewBox="0 0 24 24" fill="none" xmlns="http://www.w3.org/2000/svg">
<path d="M17.625 21.75H6.375C3.715 21.75 2.25 20.285 2.25 17.625V6.375C2.25 3.715 3.715 2.25 6.375 2.25H17.625C20.285 2.25 21.75 3.715 21.75 6.375V17.625C21.75 20.285 20.285 21.75 17.625 21.75ZM6.375 3.75C4.535 3.75 3.75 4.535 3.75 6.375V17.625C3.75 19.465 4.535 20.25 6.375 20.25H17.625C19.465 20.25 20.25 19.465 20.25 17.625V6.375C20.25 4.535 19.465 3.75 17.625 3.75H6.375ZM10.283 16.752C9.93296 16.752 9.58301 16.662 9.26001 16.481C8.59301 16.107 8.19495 15.4281 8.19495 14.6641V9.33594C8.19495 8.57194 8.59301 7.89304 9.26001 7.51904C9.93101 7.14404 10.719 7.15906 11.373 7.56006L15.8521 10.3C16.4491 10.666 16.806 11.301 16.806 12.001C16.806 12.701 16.4491 13.3359 15.8521 13.7019L11.373 16.4419C11.034 16.6479 10.659 16.752 10.283 16.752ZM10.285 8.75C10.153 8.75 10.047 8.79688 9.99304 8.82788C9.90304 8.87788 9.69397 9.02894 9.69397 9.33594V14.6641C9.69397 14.9721 9.90304 15.1221 9.99304 15.1721C10.084 15.2231 10.323 15.3249 10.59 15.1609L15.069 12.4209C15.283 12.2899 15.306 12.083 15.306 12C15.306 11.917 15.283 11.7101 15.069 11.5801L10.59 8.84009C10.481 8.77209 10.377 8.75 10.285 8.75Z" fill="currentColor"/>
</svg>

<svg xmlns="http://www.w3.org/2000/svg" width="24" height="24" fill="none"><path fill="currentColor" d="M17.625 21.75H6.375c-2.66 0-4.125-1.465-4.125-4.125V6.375c0-2.66 1.465-4.125 4.125-4.125h11.25c2.66 0 4.125 1.465 4.125 4.125v11.25c0 2.66-1.465 4.125-4.125 4.125Zm-11.25-18c-1.84 0-2.625.785-2.625 2.625v11.25c0 1.84.785 2.625 2.625 2.625h11.25c1.84 0 2.625-.785 2.625-2.625V6.375c0-1.84-.785-2.625-2.625-2.625H6.375Zm3.908 13.002c-.35 0-.7-.09-1.023-.271a2.058 2.058 0 0 1-1.065-1.817V9.336c0-.764.398-1.443 1.065-1.817a2.064 2.064 0 0 1 2.113.041l4.48 2.74c.596.366.953 1.001.953 1.701 0 .7-.357 1.335-.954 1.7l-4.479 2.74a2.086 2.086 0 0 1-1.09.311Zm.002-8.002a.6.6 0 0 0-.292.078.57.57 0 0 0-.299.508v5.328a.57.57 0 0 0 .299.508c.091.051.33.153.597-.011l4.479-2.74a.486.486 0 0 0 .237-.421.484.484 0 0 0-.237-.42L10.59 8.84a.566.566 0 0 0-.305-.09Z"/></svg>
